contributed-vectors/folder_documents.svg

<svg xmlns="http://www.w3.org/2000/svg" width="256" height="256" style="isolation:isolate" viewBox="0 0 192 192"><defs><clipPath id="a"><path d="M0 0h192v192H0z"/></clipPath></defs><g clip-path="url(#a)" style="isolation:isolate"><path d="M29.5 19.5h133c5.519 0 10 4.481 10 10v133c0 5.519-4.481 10-10 10h-133c-5.519 0-10-4.481-10-10v-133c0-5.519 4.481-10 10-10Z" style="stroke:none;fill:#53688e;stroke-miterlimit:10"/><path fill="#728DBE" d="M29.625 33H64c6.547 0 8.844 7.844 14 13h83.375c6.14 0 11.125 4.985 11.125 11.125v106.282c0 5.019-4.074 9.093-9.093 9.093H28.593c-5.019 0-9.093-4.074-9.093-9.093V43.125C19.5 37.537 24.037 33 29.625 33Z"/><path fill="#53688E" d="M81.525 81.75c-2.654 0-4.801 2.171-4.801 4.825l-.024 38.6c0 2.654 2.147 4.825 4.801 4.825h28.974a4.839 4.839 0 0 0 4.825-4.825v-28.95L100.825 81.75h-19.3Zm16.888 16.888V85.369l13.268 13.269H98.413Z"/></g></svg>

<?xml version="1.0" encoding="UTF-8" standalone="no"?><!-- Generator: Gravit.io --><svg xmlns="http://www.w3.org/2000/svg" xmlns:xlink="http://www.w3.org/1999/xlink" style="isolation:isolate" viewBox="0 0 192 192" width="192pt" height="192pt"><defs><clipPath id="_clipPath_scEBzsWn44mU0rAnApEnvgTmgfVtN7sS"><rect width="192" height="192"/></clipPath></defs><g clip-path="url(#_clipPath_scEBzsWn44mU0rAnApEnvgTmgfVtN7sS)"><g style="isolation:isolate"><path d="M 29.5 19.5 L 162.5 19.5 C 168.019 19.5 172.5 23.981 172.5 29.5 L 172.5 162.5 C 172.5 168.019 168.019 172.5 162.5 172.5 L 29.5 172.5 C 23.981 172.5 19.5 168.019 19.5 162.5 L 19.5 29.5 C 19.5 23.981 23.981 19.5 29.5 19.5 Z" style="stroke:none;fill:#53688E;stroke-miterlimit:10;"/><path d=" M 29.625 33 Q 51.25 33 64 33 C 70.547 33 72.844 40.844 78 46 Q 85.75 46 161.375 46 C 167.515 46 172.5 50.985 172.5 57.125 L 172.5 163.407 C 172.5 168.426 168.426 172.5 163.407 172.5 L 28.593 172.5 C 23.574 172.5 19.5 168.426 19.5 163.407 L 19.5 43.125 C 19.5 37.537 24.037 33 29.625 33 Z " fill="rgb(114,141,190)"/><path d=" M 81.525 81.75 C 78.871 81.75 76.724 83.921 76.724 86.575 L 76.7 125.175 C 76.7 127.829 78.847 130 81.501 130 L 110.475 130 C 113.129 130 115.3 127.829 115.3 125.175 L 115.3 96.225 L 100.825 81.75 L 81.525 81.75 Z  M 98.413 98.638 L 98.413 85.369 L 111.681 98.638 L 98.413 98.638 Z " fill="rgb(83,104,142)"/></g></g></svg>
